X:1
T:Paderborn, 10.10.11.11
T:Paderborn, 10.10.11.11
T:Paderborn Gesangbuch, 1765
T:Public Domain Courtesy of the Cyber Hymnal™
C:Paderborn Gesangbuch, 1765
Z:Public Domain
Z:Courtesy of the Cyber Hymnal™
%%score ( 1 2 ) ( 3 4 )
L:1/8
M:3/4
K:G
V:1 treble 
V:2 treble 
V:3 bass 
V:4 bass 
V:1
 [B,D]2 | [DG]2 [EG]2 [FA]2 | [GB]4 Bc | [Gd]2 [GB]2 [FA]2 | [DG]4 D2 | [B,G]2 [EG]2 [EA]2 | %6
 B4 Bc | [Dd]2 [EB]2 [FA]2 | G4 Bc | [Dd]2 B2 [Ed]2 | cB [EA]2 [Dc]2 | BA [DG]2 B2 | [FA]4 D2 | %13
 G2 [B,G]2 GA | [DB]2 [EB]2 [FB][Gc] | [G-d]2 [GB]2 [FA]2 | G4 |] %17
V:2
 x2 | x6 | x4 G2 | x6 | x6 | x6 | E2 ^D2 E2 | x6 | x4 G2 | x2 G=F x2 | E2 x4 | D2 x D E x | x6 | %13
 DC x D2 x | x6 | x6 | G4 |] %17
V:3
 [G,,B,]2 | [G,B,]2 [E,B,]2 [D,D]2 | D4 [E,E]2 | [B,,D]2 D2 [D,C]2 | [G,B,]4 [F,A,]2 | %5
 [E,G,]2 B,2 [C,A,]2 | [B,,F,]4 [E,G,]2 | [B,,G,]2 [C,G,]2 [D,C]2 | (C2 B,2) D2 | %9
 [B,D]2 [G,D]2 [^G,B,]2 | [A,C]3 [G,B,] [F,A,]2 | [G,B,][A,C] ([B,D][A,C]) [G,B,]2 | [D,D]4 F,2 | %13
 G,2 [G,,G,]2 [B,,G,][D,F,] | (G,E,) [E,G,]2 [D,D][C,E] | ([B,,D]2- D3) x | [G,,B,]4 |] %17
V:4
 x2 | x6 | G,2 F,2 x2 | x2 (B,,C,) x2 | x6 | x2 (E,D,) x2 | x6 | x6 | G,4 G,A, | x6 | x6 | x6 | %12
 x4 (D,C,) | B,,A,, x4 | x6 | x2 (B,,C,) D,2 | x4 |] %17

